X: 1
T: Tobogubben - Hambopolska
R: hambo-polska
O: efter Leif Alpsj\"o
Z: John Chambers <jc@trillian.mit.edu>
M: 3/4
L: 1/8
K: F
|: "F"(c>a) (ac) f>g | "Bb"f2 (eB) d>d | "C7"c2 (BG) E>G | "F"F2 FA c2 \
|  "F"c>a ac f>g | "Bb"f2 eB d>d | "C7"c2 BG E>G | "F"F2 F4 :|
|: "F"A2 FA d>A | "Gm"c2 BA G>F | "C"E>G ce g>e | "F"f2 af c>B \
|  "F"A2 FA d>A | "Gm"c2 BA G>F | "C"E>G ce g>e | "F"f2 f4 :|

%%sep 1 1 500

